X:104
T:Haste to the Wedding. RH.104
T:Trip to the Dargle,The. RH.104
R:Jig
S:Rev.R.Harrison’s MS,c1815,Cumbria
O:England
A:Temple Sowerby,Cumbria
Z:vmp.Simon Wilson. Review PJH, 2008.
M:6/8
L:1/8
Q:3/8=100
K:D
|:A|AFG Aaf|{f}ede fdB|AFG AdF|FEE E2A|!
AFA Aaf|{f}ede fdB|AFA f/g/a/g/f/e/|ddd d2:|!
|:a|afa afa|bgb bgb|afa agf|fee e2f/g/|!
a3f3|{f}ede fdB|AFA f/g/a/g/f/e/|ddd d2:|

